app/dist/common/images/elm-co.svg

<svg height="18" viewBox="0 0 18 18" width="18" xmlns="http://www.w3.org/2000/svg"><path d="m0 0h18v18h-18z" fill="#f0f3fa"/><path d="m5 7.5v2l1.5-1v-2zm3 0v2l1.5-1v-2zm1.5 3v2l-1.5-.9v-2.1zm0-6v2l1.5-1.04v-1.96z" fill="#1a1955"/><path d="m8 7.5v2l-1.5-1v-2z" fill="#6f319c"/><path d="m14 7.5v2l-1.5-1v-2z" fill="#2a6eb9"/><path d="m9.5 8.5-1.5 1.01 1.5.99 1.5-.99z" fill="#44c9f4"/><path d="m8 11.5-1.5 1.01 1.5.99 1.5-1zm-2.97 0-1.53 1.01 1.53.99 1.47-.99z" fill="#942d98"/><path d="m12.5 8.5-1.5 1.01 1.5.99 1.5-.99z" fill="#44c9f4"/></svg>

<!-- by TradingView --><svg width="18" height="18" viewBox="0 0 18 18" xmlns="http://www.w3.org/2000/svg"><path fill="#F0F3FA" d="M0 0h18v18H0z"/><path d="M5 7.5v2l1.5-1v-2L5 7.5ZM8 7.5v2l1.5-1v-2L8 7.5ZM9.5 10.5v2L8 11.6V9.5l1.5 1ZM9.5 4.5v2L11 5.46V3.5l-1.5 1Z" fill="#1A1955"/><path d="M8 7.5v2l-1.5-1v-2l1.5 1Z" fill="#6F319C"/><path d="M14 7.5v2l-1.5-1v-2l1.5 1Z" fill="#2A6EB9"/><path d="M9.5 8.5 8 9.51l1.5.99 1.5-.99L9.5 8.5Z" fill="#44C9F4"/><path d="m8 11.5-1.5 1.01 1.5.99 1.5-1-1.5-1ZM5.03 11.5 3.5 12.51l1.53.99 1.47-.99-1.47-1.01Z" fill="#942D98"/><path d="M12.5 8.5 11 9.51l1.5.99 1.5-.99-1.5-1.01Z" fill="#44C9F4"/></svg>
